X: 3
T:Old Woman Tossed Up, Sherborne 2
M:6/8
L:1/8
A:Sherborne
P:A(A2B2)5A
K:D
P:A
z|DEF  G2A|BAG F2E|DEF G>AG|FDD D2||
P:B
d|B>cd Bcd|Bcd e2d|cAA ABc |dcB A2F|
DEF  G2A|BAG F2E|DEF G>AG|FDD D2||
